X: 3111
T: CAMPSIE GLEN
Q:"Strathspey."
R: Strathspey.
%R:strathspey
B: James Kerr "Merry Melodies" v.3 p.14 #111
Z: 2016 John Chambers <jc:trillian.mit.edu>
N: The 2nd strain has final repeat but no initial repeat; fixed.
M: C
L: 1/8
K: A
uE |\
vC<uE vE>uA vF>vA uE2 | C<E E>F A>B (c<e) |\
C<E E>A F>AE>c | (3dcB (3cBA G<B B ::\
d |\
(c<e) (ef/g/) a>e c2 |
(c<e) (ef/g/) a>e (f<a) |\
[1 (c<e) (ef/g/) a>e c2 | (3dcB (3cBA G<B B :|\
[2 e<c a>g f>ed>c | (3dcB (3cBA G<B B |]

%%sep 1 1 500
%%sep 1 1 500

